X:20
T:Boys of Bluehill
R:Hornpipe
C:Trad
M:4/4
L:1/8
K:D
FG |: BAFA D2 FA | BABd e2 de | faaf egfe | dfed B2 dB |
   | BAFA D2 FA | BA Bd e2 de | faaf egfe |1 d2d2d2 FG:|2 d2d2d2 fg|
   |: afdf a2 gf | gfga b2 ag | faaf egfe | dfed B2 dB |
   | BAFA D2 FA | BAB d e2 de | faaf egfe |1 d2d2d2 fg:|2 d2d2d2 FG|
